X: 20552
T: DUNDAN DAVIDSON
C:
%R: reel
B: Elias Howe "The Musician's Companion" 1843 p.55 #2
S: http://imslp.org/wiki/The_Musician's_Companion_(Howe,_Elias)
Z: 2015 John Chambers <jc:trillian.mit.edu>
M: C|
L: 1/8
K: D
% - - - - - - - - - - - - - - - - - - - - - - - - -
F |\
D2AB AFAB | D/D/D dB AFEF | DDAB ABde | fdef d/d/ddF |\
D2AB AFAB | D/D/D dB AFEF | D/D/D AB ABde | fdef d/d/d d :|
|: g |\
fedf gfea | cAeA fAef | fedf gfea | cAef d/d/ddg |\
fedf gfea | cAeA fAeg | fdge afbg | fdef d/d/d d :|
% - - - - - - - - - - - - - - - - - - - - - - - - -

%%sep 1 1 500

